public/decor.svg

<svg width="1920" height="431" viewBox="0 0 1920 431" fill="none" xmlns="http://www.w3.org/2000/svg">
<g opacity="0.02">
<path d="M15.1562 430.844C-23.4414 430.844 -51.3086 421.234 -68.4453 402.016C-85.4219 382.797 -93.9102 352.207 -93.9102 310.246V268.926H-10.3086V321.777C-10.3086 331.547 -8.86719 339.234 -5.98438 344.84C-2.94141 350.285 2.26367 353.008 9.63086 353.008C17.3184 353.008 22.6035 350.766 25.4863 346.281C28.5293 341.797 30.0508 334.43 30.0508 324.18C30.0508 311.207 28.7695 300.396 26.207 291.748C23.6445 282.939 19.1602 274.611 12.7539 266.764C6.50781 258.756 -2.2207 249.467 -13.4316 238.896L-51.3887 202.861C-79.7363 176.115 -93.9102 145.525 -93.9102 111.092C-93.9102 75.0566 -85.582 47.5898 -68.9258 28.6914C-52.1094 9.79297 -27.8457 0.34375 3.86523 0.34375C42.623 0.34375 70.0898 10.6738 86.2656 31.334C102.602 51.9941 110.77 83.3848 110.77 125.506H24.7656V96.4375C24.7656 90.6719 23.084 86.1875 19.7207 82.9844C16.5176 79.7813 12.1133 78.1797 6.50781 78.1797C-0.21875 78.1797 -5.18359 80.1016 -8.38672 83.9453C-11.4297 87.6289 -12.9512 92.4336 -12.9512 98.3594C-12.9512 104.285 -11.3496 110.691 -8.14648 117.578C-4.94336 124.465 1.38281 132.393 10.832 141.361L59.5996 188.207C69.3691 197.496 78.3379 207.346 86.5059 217.756C94.6738 228.006 101.24 240.018 106.205 253.791C111.17 267.404 113.652 284.061 113.652 303.76C113.652 343.479 106.285 374.629 91.5508 397.211C76.9766 419.633 51.5117 430.844 15.1562 430.844ZM239.775 430.844C204.541 430.844 178.596 420.994 161.939 401.295C145.283 381.436 136.955 352.287 136.955 313.85V4.1875H219.115V310.486C219.115 317.533 219.516 324.34 220.316 330.906C221.117 337.312 222.959 342.598 225.842 346.762C228.725 350.926 233.369 353.008 239.775 353.008C246.342 353.008 251.066 351.006 253.949 347.002C256.832 342.838 258.594 337.473 259.234 330.906C260.035 324.34 260.436 317.533 260.436 310.486V4.1875H342.596V313.85C342.596 352.287 334.268 381.436 317.611 401.295C300.955 420.994 275.01 430.844 239.775 430.844ZM375.027 427V4.1875H503.793L539.348 261.959L574.662 4.1875H704.629V427H627.273V122.383L578.746 427H502.832L451.422 122.383V427H375.027ZM742.105 427V4.1875H870.871L906.426 261.959L941.74 4.1875H1071.71V427H994.352V122.383L945.824 427H869.91L818.5 122.383V427H742.105ZM1105.34 427V4.1875H1187.02V427H1105.34ZM1256.93 427V85.3867H1206.72V4.1875H1391.7V85.3867H1341.49V427H1256.93ZM1545.69 156.977L1521.67 4.1875H1606.23L1587.97 156.977H1545.69ZM1631.93 427V406.82C1631.93 385.84 1635.14 367.021 1641.54 350.365C1648.11 333.549 1656.52 318.014 1666.77 303.76C1677.02 289.346 1687.83 275.252 1699.2 261.479C1710.25 248.025 1720.74 234.252 1730.67 220.158C1740.76 205.904 1748.93 190.529 1755.17 174.033C1761.58 157.377 1764.78 138.719 1764.78 118.059C1764.78 108.129 1763.26 99.6406 1760.22 92.5938C1757.34 85.3867 1751.25 81.7832 1741.96 81.7832C1727.87 81.7832 1720.82 94.3555 1720.82 119.5V171.15H1631.93C1631.77 167.467 1631.53 163.303 1631.21 158.658C1631.05 154.014 1630.97 149.529 1630.97 145.205C1630.97 114.775 1634.18 88.9902 1640.58 67.8496C1646.99 46.5488 1658.28 30.373 1674.46 19.3223C1690.79 8.11133 1713.69 2.50586 1743.16 2.50586C1778.24 2.50586 1805.46 12.3555 1824.84 32.0547C1844.38 51.7539 1854.15 79.8613 1854.15 116.377C1854.15 141.201 1850.95 162.982 1844.54 181.721C1838.13 200.299 1829.65 217.275 1819.08 232.65C1808.51 247.865 1796.89 263.08 1784.24 278.295C1775.27 289.025 1766.54 299.996 1758.06 311.207C1749.73 322.418 1742.36 334.43 1735.96 347.242H1851.27V427H1631.93ZM1875.05 427V406.82C1875.05 385.84 1878.25 367.021 1884.66 350.365C1891.23 333.549 1899.63 318.014 1909.88 303.76C1920.13 289.346 1930.95 275.252 1942.32 261.479C1953.37 248.025 1963.86 234.252 1973.79 220.158C1983.88 205.904 1992.04 190.529 1998.29 174.033C2004.7 157.377 2007.9 138.719 2007.9 118.059C2007.9 108.129 2006.38 99.6406 2003.34 92.5938C2000.45 85.3867 1994.37 81.7832 1985.08 81.7832C1970.98 81.7832 1963.94 94.3555 1963.94 119.5V171.15H1875.05C1874.89 167.467 1874.65 163.303 1874.33 158.658C1874.17 154.014 1874.09 149.529 1874.09 145.205C1874.09 114.775 1877.29 88.9902 1883.7 67.8496C1890.11 46.5488 1901.4 30.373 1917.57 19.3223C1933.91 8.11133 1956.81 2.50586 1986.28 2.50586C2021.35 2.50586 2048.58 12.3555 2067.96 32.0547C2087.5 51.7539 2097.27 79.8613 2097.27 116.377C2097.27 141.201 2094.06 162.982 2087.66 181.721C2081.25 200.299 2072.76 217.275 2062.19 232.65C2051.62 247.865 2040.01 263.08 2027.36 278.295C2018.39 289.025 2009.66 299.996 2001.17 311.207C1992.85 322.418 1985.48 334.43 1979.07 347.242H2094.38V427H1875.05Z" fill="white"/>
<path d="M-104 513.004H2103.27V537.508H-104V513.004Z" fill="white"/>
</g>
</svg>

<svg xmlns="http://www.w3.org/2000/svg" width="1920" height="431" fill="none" viewBox="0 0 1920 431">
  <path fill="#fff" d="M15.156 430.844c-38.597 0-66.465-9.61-83.601-28.828-16.977-19.219-25.465-49.809-25.465-91.77v-41.32h83.601v52.851c0 9.77 1.442 17.457 4.325 23.063 3.043 5.445 8.248 8.168 15.615 8.168 7.687 0 12.973-2.242 15.855-6.727 3.043-4.484 4.565-11.851 4.565-22.101 0-12.973-1.281-23.784-3.844-32.432-2.563-8.809-7.047-17.137-13.453-24.984-6.246-8.008-14.975-17.297-26.186-27.868l-37.957-36.035c-28.347-26.746-42.521-57.336-42.521-91.769 0-36.035 8.328-63.502 24.984-82.4C-52.109 9.792-27.846.343 3.865.343c38.758 0 66.225 10.33 82.4 30.99 16.337 20.66 24.505 52.05 24.505 94.172H24.766V96.437c0-5.765-1.682-10.25-5.045-13.453-3.203-3.203-7.608-4.804-13.213-4.804-6.727 0-11.692 1.922-14.895 5.765-3.043 3.684-4.564 8.489-4.564 14.414 0 5.926 1.601 12.332 4.805 19.219 3.203 6.887 9.529 14.815 18.978 23.783L59.6 188.207c9.77 9.289 18.738 19.139 26.906 29.549 8.168 10.25 14.734 22.262 19.699 36.035 4.965 13.613 7.447 30.27 7.447 49.969 0 39.719-7.367 70.869-22.101 93.451-14.574 22.422-40.04 33.633-76.395 33.633Zm224.619 0c-35.234 0-61.179-9.85-77.836-29.549-16.656-19.859-24.984-49.008-24.984-87.445V4.187h82.16v306.299c0 7.047.401 13.854 1.201 20.42.801 6.406 2.643 11.692 5.526 15.856s7.527 6.246 13.933 6.246c6.567 0 11.291-2.002 14.174-6.006 2.883-4.164 4.645-9.529 5.285-16.096.801-6.566 1.202-13.373 1.202-20.42V4.188h82.16V313.85c0 38.437-8.328 67.586-24.985 87.445-16.656 19.699-42.601 29.549-77.836 29.549ZM375.027 427V4.187h128.766l35.555 257.772L574.662 4.187h129.967V427h-77.356V122.383L578.746 427h-75.914l-51.41-304.617V427h-76.395Zm367.078 0V4.187h128.766l35.555 257.772L941.74 4.187h129.97V427h-77.358V122.383L945.824 427H869.91L818.5 122.383V427h-76.395Zm363.235 0V4.187h81.68V427h-81.68Zm151.59 0V85.387h-50.21v-81.2h184.98v81.2h-50.21V427h-84.56Zm288.76-270.023-24.02-152.79h84.56l-18.26 152.79h-42.28ZM1631.93 427v-20.18c0-20.98 3.21-39.799 9.61-56.455 6.57-16.816 14.98-32.351 25.23-46.605a740.35 740.35 0 0 1 32.43-42.281 703.452 703.452 0 0 0 31.47-41.321c10.09-14.254 18.26-29.629 24.5-46.125 6.41-16.656 9.61-35.314 9.61-55.974 0-9.93-1.52-18.418-4.56-25.465-2.88-7.207-8.97-10.81-18.26-10.81-14.09 0-21.14 12.572-21.14 37.716v51.65h-88.89c-.16-3.683-.4-7.847-.72-12.492-.16-4.644-.24-9.129-.24-13.453 0-30.43 3.21-56.215 9.61-77.355 6.41-21.301 17.7-37.477 33.88-48.528 16.33-11.21 39.23-16.816 68.7-16.816 35.08 0 62.3 9.85 81.68 29.549 19.54 19.699 29.31 47.806 29.31 84.322 0 24.824-3.2 46.605-9.61 65.344-6.41 18.578-14.89 35.554-25.46 50.929-10.57 15.215-22.19 30.43-34.84 45.645a863.391 863.391 0 0 0-26.18 32.912c-8.33 11.211-15.7 23.223-22.1 36.035h115.31V427h-219.34Zm243.12 0v-20.18c0-20.98 3.2-39.799 9.61-56.455 6.57-16.816 14.97-32.351 25.22-46.605a740.534 740.534 0 0 1 32.44-42.281 703.452 703.452 0 0 0 31.47-41.321c10.09-14.254 18.25-29.629 24.5-46.125 6.41-16.656 9.61-35.314 9.61-55.974 0-9.93-1.52-18.418-4.56-25.465-2.89-7.207-8.97-10.81-18.26-10.81-14.1 0-21.14 12.572-21.14 37.716v51.65h-88.89c-.16-3.683-.4-7.847-.72-12.492-.16-4.644-.24-9.129-.24-13.453 0-30.43 3.2-56.215 9.61-77.355 6.41-21.301 17.7-37.477 33.87-48.528 16.34-11.21 39.24-16.816 68.71-16.816 35.07 0 62.3 9.85 81.68 29.549 19.54 19.699 29.31 47.806 29.31 84.322 0 24.824-3.21 46.605-9.61 65.344-6.41 18.578-14.9 35.554-25.47 50.929-10.57 15.215-22.18 30.43-34.83 45.645a873.637 873.637 0 0 0-26.19 32.912c-8.32 11.211-15.69 23.223-22.1 36.035h115.31V427h-219.33ZM-104 513.004h2207.27v24.504H-104v-24.504Z" opacity=".02"/>
</svg>
